work04/images/icon05.svg

<svg viewBox="0 0 60 60" xmlns="http://www.w3.org/2000/svg" xmlns:xlink="http://www.w3.org/1999/xlink"><clipPath id="a"><path d="m5.6 8.4h48.8v43.2h-48.8z"/></clipPath><path d="m0 0h60v60h-60z" fill="none"/><g clip-path="url(#a)"><path d="m28.78 9.39-22.39 22.15a.44.44 0 0 0 -.13.24.39.39 0 0 0 0 .26.42.42 0 0 0 .16.21.5.5 0 0 0 .26.08h2.59a1.57 1.57 0 0 1 1.57 1.57v15.7a1.59 1.59 0 0 0 1.57 1.58h10.14a1.73 1.73 0 0 0 .6-.12 1.5 1.5 0 0 0 .51-.35 1.47 1.47 0 0 0 .34-.51 1.53 1.53 0 0 0 .12-.6v-9.32a1.59 1.59 0 0 1 1.57-1.58h9.31a1.59 1.59 0 0 1 1.57 1.58v9.32a1.59 1.59 0 0 0 1.57 1.58h9.86a1.59 1.59 0 0 0 1.57-1.58v-15.7a1.57 1.57 0 0 1 1.58-1.57h2.56a.44.44 0 0 0 .25-.08.39.39 0 0 0 .17-.21.46.46 0 0 0 0-.26.51.51 0 0 0 -.13-.24l-22.38-22.15a2 2 0 0 0 -2.84 0z" fill="#e9d6d6"/></g></svg>

<svg xmlns="http://www.w3.org/2000/svg" xmlns:xlink="http://www.w3.org/1999/xlink" viewBox="0 0 60 60"><defs><clipPath id="a"><rect x="5.6" y="8.4" width="48.8" height="43.2" style="fill:none"/></clipPath></defs><rect width="60" height="60" style="fill:none"/><g style="clip-path:url(#a)"><path d="M28.78,9.39,6.39,31.54a.44.44,0,0,0-.13.24.39.39,0,0,0,0,.26.42.42,0,0,0,.16.21.5.5,0,0,0,.26.08H9.27a1.57,1.57,0,0,1,1.57,1.57V49.6a1.59,1.59,0,0,0,1.57,1.58H22.55a1.73,1.73,0,0,0,.6-.12,1.5,1.5,0,0,0,.51-.35A1.47,1.47,0,0,0,24,50.2a1.53,1.53,0,0,0,.12-.6V40.28a1.59,1.59,0,0,1,1.57-1.58H35a1.59,1.59,0,0,1,1.57,1.58V49.6a1.59,1.59,0,0,0,1.57,1.58H48a1.59,1.59,0,0,0,1.57-1.58V33.9a1.57,1.57,0,0,1,1.58-1.57h2.56a.44.44,0,0,0,.25-.08.39.39,0,0,0,.17-.21.46.46,0,0,0,0-.26.51.51,0,0,0-.13-.24L31.62,9.39a2,2,0,0,0-2.84,0Z" style="fill:#e9d6d6"/></g></svg>
